X: 21514
Q: "Moderato."
M: 2/4
L: 1/16
K: D
[|"dolce."\
d3d e3e | f4 z2A2 | "^cresc."d3d e3e | f4 !p!f2e2 |\
d2c2 B2dB | A2F2 ("^>"F3E) | (Dd) z!pp!F F2E2 | D4 z4 |]


